CONTACTS/img/ic_note_add_24px.svg

<svg xmlns="http://www.w3.org/2000/svg" width="24" height="24" viewBox="0 0 24 24">
    <path d="M0 0h24v24h-24z" fill="none"/>
    <path d="M14 2h-8c-1.1 0-1.99.9-1.99 2l-.01 16c0 1.1.89 2 1.99 2h12.01c1.1 0 2-.9 2-2v-12l-6-6zm2 14h-3v3h-2v-3h-3v-2h3v-3h2v3h3v2zm-3-7v-5.5l5.5 5.5h-5.5z"/>
</svg>

<svg xmlns="http://www.w3.org/2000/svg" width="24" height="24" viewBox="0 0 24 24"><path d="M14 2H6c-1.1 0-1.99.9-1.99 2L4 20c0 1.1.89 2 1.99 2H18c1.1 0 2-.9 2-2V8l-6-6zm2 14h-3v3h-2v-3H8v-2h3v-3h2v3h3v2zm-3-7V3.5L18.5 9H13z"/></svg>
